src/images/features/feature-custom-plugins.svg

<svg width="393" height="181" viewBox="0 0 393 181" fill="none" xmlns="http://www.w3.org/2000/svg">
<path fill-rule="evenodd" clip-rule="evenodd" d="M31.2299 136.573C31.8607 136.982 32.2902 137.658 32.2902 138.41V141H0V218H77V185.71H72.4602C71.7928 185.71 71.1791 186.051 70.7568 186.568C68.7071 189.076 65.5891 190.677 62.097 190.677C55.9239 190.677 50.9196 185.673 50.9196 179.5C50.9196 173.327 55.9239 168.323 62.097 168.323C66.043 168.323 69.5114 170.367 71.5004 173.455C71.9116 174.093 72.5927 174.532 73.352 174.532H77V141H44.7096V137.518C44.7096 136.852 45.0482 136.24 45.5641 135.82C48.0824 133.77 49.6774 130.731 49.6774 127.339C49.6774 121.166 44.3951 116.161 37.879 116.161C31.363 116.161 26.0806 121.166 26.0806 127.339C26.0806 131.175 28.121 134.56 31.2299 136.573Z" fill="#D07EF7"/>
<path fill-rule="evenodd" clip-rule="evenodd" d="M261.718 147.339C262.336 146.925 262.758 146.254 262.758 145.51V141H228.516V174.532H232.164C232.924 174.532 233.605 174.093 234.016 173.455C236.005 170.367 239.473 168.323 243.419 168.323C249.592 168.323 254.597 173.327 254.597 179.5C254.597 185.673 249.592 190.677 243.419 190.677C239.927 190.677 236.809 189.076 234.759 186.568C234.337 186.051 233.723 185.71 233.056 185.71H228.516V218H305.516V141H273.758V145.965C273.758 146.661 274.129 147.297 274.684 147.718C277.375 149.759 279.113 152.991 279.113 156.629C279.113 162.802 274.109 167.807 267.936 167.807C261.763 167.807 256.758 162.802 256.758 156.629C256.758 152.757 258.727 149.345 261.718 147.339Z" fill="#D07EF7"/>
<path fill-rule="evenodd" clip-rule="evenodd" d="M44.8339 135.997C44.3247 136.42 43.9888 137.03 43.9888 137.692L43.9888 141L75.7581 141L75.7581 107.468L72.198 107.468C71.4341 107.468 70.7498 107.912 70.34 108.557C68.3818 111.638 64.9731 113.677 61.0956 113.677C55.0221 113.677 50.0985 108.673 50.0985 102.5C50.0985 96.3269 55.0221 91.3226 61.0957 91.3226C64.5258 91.3226 67.5891 92.9188 69.6059 95.4202C70.0281 95.9439 70.6459 96.2904 71.3185 96.2904L75.7581 96.2904L75.7581 64L1.34631e-05 64L6.73155e-06 141L32.9917 141L32.9917 138.585C32.9917 137.83 32.558 137.153 31.9268 136.739C28.8916 134.749 26.882 131.283 26.882 127.339C26.882 121.166 31.8055 116.161 37.8791 116.161C43.9526 116.161 48.8762 121.166 48.8762 127.339C48.8762 130.83 47.3012 133.948 44.8339 135.997Z" fill="#6E2F8F"/>
<path fill-rule="evenodd" clip-rule="evenodd" d="M70.7567 186.568C71.1789 186.051 71.7927 185.71 72.4601 185.71L75.7581 185.71L75.7581 218L152.758 218L152.758 185.71L148.218 185.71C147.551 185.71 146.937 186.051 146.515 186.568C144.465 189.076 141.347 190.677 137.855 190.677C131.682 190.677 126.677 185.673 126.677 179.5C126.677 173.327 131.682 168.323 137.855 168.323C141.801 168.323 145.269 170.367 147.258 173.455C147.67 174.093 148.351 174.532 149.11 174.532L152.758 174.532L152.758 141L120.468 141L120.468 145.54C120.468 146.207 120.809 146.821 121.326 147.243C123.834 149.293 125.436 152.411 125.436 155.903C125.436 162.076 120.431 167.081 114.258 167.081C108.085 167.081 103.081 162.076 103.081 155.903C103.081 151.957 105.125 148.489 108.213 146.5C108.851 146.089 109.29 145.408 109.29 144.648L109.29 141L75.7581 141L75.7581 174.532L73.3518 174.532C72.5925 174.532 71.9115 174.093 71.5003 173.455C69.5112 170.367 66.0428 168.323 62.0969 168.323C55.9237 168.323 50.9194 173.327 50.9194 179.5C50.9194 185.673 55.9237 190.677 62.0969 190.677C65.5889 190.677 68.707 189.076 70.7567 186.568Z" fill="#9548BD"/>
<path fill-rule="evenodd" clip-rule="evenodd" d="M234.76 95.4324C234.338 95.9492 233.724 96.2903 233.057 96.2903L229.758 96.2903L229.758 64L152.758 64L152.758 97.5322L149.11 97.5322C148.351 97.5322 147.67 97.0934 147.259 96.4551C145.27 93.3673 141.801 91.3226 137.855 91.3226C131.682 91.3226 126.678 96.3269 126.678 102.5C126.678 108.673 131.682 113.677 137.855 113.677C141.347 113.677 144.465 112.076 146.515 109.568C146.937 109.051 147.551 108.71 148.218 108.71L152.758 108.71L152.758 141L185.049 141L185.049 144.648C185.049 145.407 184.61 146.089 183.972 146.5C180.884 148.489 178.839 151.957 178.839 155.903C178.839 162.076 183.843 167.081 190.017 167.081C196.19 167.081 201.194 162.076 201.194 155.903C201.194 152.411 199.593 149.293 197.084 147.243C196.567 146.821 196.226 146.207 196.226 145.54L196.226 141L229.758 141L229.758 107.468L232.165 107.468C232.924 107.468 233.605 107.907 234.016 108.545C236.005 111.633 239.474 113.677 243.42 113.677C249.593 113.677 254.597 108.673 254.597 102.5C254.597 96.3269 249.593 91.3226 243.42 91.3226C239.928 91.3226 236.81 92.924 234.76 95.4324Z" fill="#9548BD"/>
<path fill-rule="evenodd" clip-rule="evenodd" d="M318.134 83.6805L288.624 67.9266L304.416 38.3457L307.634 40.0637C308.304 40.4213 308.698 41.1292 308.76 41.8859C309.061 45.5465 311.157 48.9838 314.638 50.8421C320.084 53.7493 326.855 51.6914 329.763 46.2457C332.67 40.8 330.612 34.0286 325.166 31.1215C322.086 29.4769 318.581 29.4212 315.591 30.6688C314.975 30.9258 314.273 30.9377 313.685 30.6234L309.68 28.4854L324.887 0L392.813 36.2626L356.551 104.189L327.994 88.9444L325.514 93.5899C325.2 94.1787 325.212 94.8807 325.469 95.4966C326.717 98.4862 326.661 101.991 325.016 105.072C322.109 110.517 315.338 112.575 309.892 109.668C304.446 106.761 302.389 99.9894 305.296 94.5437C307.154 91.0627 310.591 88.966 314.252 88.6654C315.009 88.6033 315.717 88.2091 316.074 87.5393L318.134 83.6805Z" fill="#DCE94E"/>
<path fill-rule="evenodd" clip-rule="evenodd" d="M148.218 185.71C147.551 185.71 146.937 186.051 146.515 186.568C144.465 189.076 141.347 190.677 137.855 190.677C131.682 190.677 126.678 185.673 126.678 179.5C126.678 173.327 131.682 168.323 137.855 168.323C141.801 168.323 145.27 170.367 147.259 173.455C147.67 174.093 148.351 174.532 149.11 174.532L151.516 174.532L151.516 141L185.049 141L185.049 144.648C185.049 145.407 184.61 146.089 183.971 146.5C180.884 148.489 178.839 151.957 178.839 155.903C178.839 162.076 183.843 167.081 190.016 167.081C196.189 167.081 201.194 162.076 201.194 155.903C201.194 152.411 199.592 149.293 197.084 147.244C196.567 146.821 196.226 146.208 196.226 145.54L196.226 141L228.516 141L228.516 174.532L232.165 174.532C232.924 174.532 233.605 174.093 234.016 173.455C236.005 170.367 239.474 168.323 243.42 168.323C249.593 168.323 254.597 173.327 254.597 179.5C254.597 185.673 249.593 190.677 243.42 190.677C239.928 190.677 236.81 189.076 234.76 186.568C234.338 186.051 233.724 185.71 233.057 185.71L228.516 185.71L228.516 218L151.516 218L151.516 185.71L148.218 185.71Z" fill="#6E2F8F"/>
<path fill-rule="evenodd" clip-rule="evenodd" d="M148.218 108.71C147.551 108.71 146.937 109.051 146.515 109.568C144.465 112.076 141.347 113.677 137.855 113.677C131.682 113.677 126.678 108.673 126.678 102.5C126.678 96.3269 131.682 91.3226 137.855 91.3226C141.801 91.3226 145.269 93.3673 147.258 96.4551C147.67 97.0934 148.351 97.5322 149.11 97.5322L152.758 97.5322L152.758 64L75.7583 64L75.7583 96.2903L71.2182 96.2903C70.5508 96.2903 69.9371 95.9492 69.5148 95.4324C67.4651 92.9239 64.3471 91.3226 60.8551 91.3226C54.682 91.3226 49.6777 96.3269 49.6777 102.5C49.6777 108.673 54.682 113.677 60.8551 113.677C64.8011 113.677 68.2695 111.633 70.2585 108.545C70.6697 107.907 71.3508 107.468 72.1101 107.468L75.7583 107.468L75.7583 141L108.566 141L108.566 144.499C108.566 145.263 108.123 145.948 107.474 146.352C104.087 148.463 101.839 152.182 101.839 156.416C101.839 162.992 107.26 168.323 113.948 168.323C120.635 168.323 126.057 162.992 126.057 156.416C126.057 152.671 124.298 149.329 121.548 147.147C121.021 146.728 120.675 146.11 120.675 145.437L120.675 141L152.758 141L152.758 108.71L148.218 108.71Z" fill="#D07EF7"/>
</svg>

<svg fill="none" viewBox="0 0 393 181"><path fill="#D07EF7" fill-rule="evenodd" d="M31.23 136.573c.63.409 1.06 1.085 1.06 1.837V141H0v77h77v-32.29h-4.54c-.667 0-1.28.341-1.703.858a11.156 11.156 0 01-8.66 4.109c-6.173 0-11.177-5.004-11.177-11.177s5.004-11.177 11.177-11.177c3.946 0 7.414 2.044 9.403 5.132.412.638 1.093 1.077 1.852 1.077H77V141H44.71v-3.482c0-.666.338-1.278.854-1.698 2.518-2.05 4.113-5.089 4.113-8.481 0-6.173-5.282-11.178-11.798-11.178s-11.798 5.005-11.798 11.178c0 3.836 2.04 7.221 5.149 9.234zm230.488 10.766c.618-.414 1.04-1.085 1.04-1.829V141h-34.242v33.532h3.648c.76 0 1.441-.439 1.852-1.077a11.167 11.167 0 019.403-5.132c6.173 0 11.178 5.004 11.178 11.177s-5.005 11.177-11.178 11.177c-3.492 0-6.61-1.601-8.66-4.109-.422-.517-1.036-.858-1.703-.858h-4.54V218h77v-77h-31.758v4.965c0 .696.371 1.332.926 1.753a11.16 11.16 0 014.429 8.911c0 6.173-5.004 11.178-11.177 11.178s-11.178-5.005-11.178-11.178c0-3.872 1.969-7.284 4.96-9.29z" clip-rule="evenodd"/><path fill="#6E2F8F" fill-rule="evenodd" d="M44.834 135.997c-.51.423-.845 1.033-.845 1.695V141h31.77v-33.532h-3.561c-.764 0-1.448.444-1.858 1.089-1.958 3.081-5.367 5.12-9.244 5.12-6.074 0-10.997-5.004-10.997-11.177s4.923-11.177 10.997-11.177c3.43 0 6.493 1.596 8.51 4.097.422.524 1.04.87 1.713.87h4.44V64H0v77h32.992v-2.415c0-.755-.434-1.432-1.065-1.846a11.214 11.214 0 01-5.045-9.4c0-6.173 4.923-11.178 10.997-11.178s10.997 5.005 10.997 11.178c0 3.491-1.575 6.609-4.042 8.658z" clip-rule="evenodd"/><path fill="#9548BD" fill-rule="evenodd" d="M70.757 186.568c.422-.517 1.036-.858 1.703-.858h3.298V218h77v-32.29h-4.54c-.667 0-1.281.341-1.703.858a11.157 11.157 0 01-8.66 4.109c-6.173 0-11.178-5.004-11.178-11.177s5.005-11.177 11.178-11.177c3.946 0 7.414 2.044 9.403 5.132.412.638 1.093 1.077 1.852 1.077h3.648V141h-32.29v4.54c0 .667.341 1.281.858 1.703a11.158 11.158 0 014.11 8.66c0 6.173-5.005 11.178-11.178 11.178-6.173 0-11.177-5.005-11.177-11.178 0-3.946 2.044-7.414 5.132-9.403.638-.411 1.077-1.092 1.077-1.852V141H75.758v33.532h-2.406c-.76 0-1.44-.439-1.852-1.077a11.168 11.168 0 00-9.403-5.132c-6.173 0-11.178 5.004-11.178 11.177s5.005 11.177 11.178 11.177c3.492 0 6.61-1.601 8.66-4.109zM234.76 95.432c-.422.517-1.036.858-1.703.858h-3.299V64h-77v33.532h-3.648c-.759 0-1.44-.439-1.851-1.077a11.17 11.17 0 00-9.404-5.132c-6.173 0-11.177 5.004-11.177 11.177s5.004 11.177 11.177 11.177c3.492 0 6.61-1.601 8.66-4.109.422-.517 1.036-.858 1.703-.858h4.54V141h32.291v3.648c0 .759-.439 1.441-1.077 1.852a11.168 11.168 0 00-5.133 9.403c0 6.173 5.004 11.178 11.178 11.178 6.173 0 11.177-5.005 11.177-11.178 0-3.492-1.601-6.61-4.11-8.66-.517-.422-.858-1.036-.858-1.703V141h33.532v-33.532h2.407c.759 0 1.44.439 1.851 1.077a11.168 11.168 0 009.404 5.132c6.173 0 11.177-5.004 11.177-11.177s-5.004-11.177-11.177-11.177c-3.492 0-6.61 1.601-8.66 4.11z" clip-rule="evenodd"/><path fill="#DCE94E" fill-rule="evenodd" d="M318.134 83.68l-29.51-15.753 15.792-29.581 3.218 1.718c.67.357 1.064 1.065 1.126 1.822a11.17 11.17 0 005.878 8.956c5.446 2.907 12.217.85 15.125-4.596 2.907-5.446.849-12.217-4.597-15.125a11.155 11.155 0 00-9.575-.452c-.616.257-1.318.269-1.906-.046l-4.005-2.138L324.887 0l67.926 36.263-36.262 67.926-28.557-15.245-2.48 4.646c-.314.589-.302 1.29-.045 1.907a11.154 11.154 0 01-.453 9.575c-2.907 5.445-9.678 7.503-15.124 4.596s-7.503-9.679-4.596-15.124a11.167 11.167 0 018.956-5.879c.757-.062 1.465-.456 1.822-1.126l2.06-3.859z" clip-rule="evenodd"/><path fill="#6E2F8F" fill-rule="evenodd" d="M148.218 185.71c-.667 0-1.281.341-1.703.858a11.157 11.157 0 01-8.66 4.109c-6.173 0-11.177-5.004-11.177-11.177s5.004-11.177 11.177-11.177c3.946 0 7.415 2.044 9.404 5.132.411.638 1.092 1.077 1.851 1.077h2.406V141h33.533v3.648c0 .759-.439 1.441-1.078 1.852a11.169 11.169 0 00-5.132 9.403c0 6.173 5.004 11.178 11.177 11.178s11.178-5.005 11.178-11.178c0-3.492-1.602-6.61-4.11-8.659-.517-.423-.858-1.036-.858-1.704V141h32.29v33.532h3.649c.759 0 1.44-.439 1.851-1.077a11.168 11.168 0 019.404-5.132c6.173 0 11.177 5.004 11.177 11.177s-5.004 11.177-11.177 11.177c-3.492 0-6.61-1.601-8.66-4.109-.422-.517-1.036-.858-1.703-.858h-4.541V218h-77v-32.29h-3.298z" clip-rule="evenodd"/><path fill="#D07EF7" fill-rule="evenodd" d="M148.218 108.71c-.667 0-1.281.341-1.703.858a11.157 11.157 0 01-8.66 4.109c-6.173 0-11.177-5.004-11.177-11.177s5.004-11.177 11.177-11.177c3.946 0 7.414 2.044 9.403 5.132.412.638 1.093 1.077 1.852 1.077h3.648V64h-77v32.29h-4.54c-.667 0-1.28-.34-1.703-.858a11.155 11.155 0 00-8.66-4.11c-6.173 0-11.177 5.005-11.177 11.178 0 6.173 5.004 11.177 11.177 11.177a11.17 11.17 0 009.404-5.132c.41-.638 1.092-1.077 1.851-1.077h3.648V141h32.808v3.499c0 .764-.443 1.449-1.092 1.853-3.387 2.111-5.635 5.83-5.635 10.064 0 6.576 5.421 11.907 12.109 11.907 6.687 0 12.109-5.331 12.109-11.907 0-3.745-1.759-7.087-4.509-9.269-.527-.419-.873-1.037-.873-1.71V141h32.083v-32.29h-4.54z" clip-rule="evenodd"/></svg>
